static/logos/getfeedback-glyph-color.svg

<svg width="50" height="50" viewBox="0 0 50 50" fill="none" xmlns="http://www.w3.org/2000/svg">
<g clip-path="url(#clip0_1_2690)">
<path d="M33.1531 1.39687C30.5656 0.490625 27.7875 0 24.8906 0C22.6313 0 20.4406 0.3 18.3594 0.8625C11.7719 2.64062 5.1875 8.04063 3.43437 14.8188C2.65312 17.8344 2.75625 20.9719 4.30937 23.725C4.59687 24.2375 4.91875 24.7281 5.275 25.1969C5.68125 25.7406 6.13437 26.2531 6.625 26.725C7.33125 27.4094 8.11875 28.0156 8.98125 28.5344C11.9531 30.3156 15.4438 30.8375 18.8063 29.9937C22.8656 28.9812 26.125 26.1156 27.6781 22.3188H20.9219C20.625 22.3188 20.3875 22.0781 20.3875 21.7812V17.3C20.3875 17.0031 20.625 16.7625 20.9219 16.7625H36.875C37.1719 16.7625 37.4125 17.0031 37.4125 17.3V34.1875C37.4125 34.4844 37.1719 34.725 36.875 34.725H32.3969C32.1 34.725 31.8594 34.4844 31.8594 34.1875V26.4188C29.4031 30.8406 25.2125 34.1219 20.15 35.3844C18.6531 35.7594 17.1344 35.9437 15.6281 35.9437C12.3094 35.9437 9.04063 35.0469 6.12187 33.2938C4.86562 32.5406 3.71875 31.6531 2.69687 30.6531C2.5625 30.525 2.43125 30.3906 2.30312 30.2563C1.4375 29.3594 0.665625 28.3812 0 27.3281C1.175 40.0437 11.8688 50 24.8906 50C38.7 50 49.8906 38.8063 49.8906 25C49.8906 14.0875 42.9 4.80625 33.1531 1.39687Z" fill="#417E62"/>
</g>
<defs>
<clipPath id="clip0_1_2690">
<rect width="50" height="50" fill="white"/>
</clipPath>
</defs>
</svg>

<svg xmlns="http://www.w3.org/2000/svg" width="64" height="64" fill="none" viewBox="0 0 50 50"><g clip-path="url(#a)"><path fill="#417E62" d="M33.153 1.397A24.938 24.938 0 0 0 24.891 0c-2.26 0-4.45.3-6.532.863C11.772 2.64 5.187 8.04 3.434 14.819c-.78 3.015-.678 6.153.875 8.906.288.512.61 1.003.966 1.472a13.03 13.03 0 0 0 3.706 3.338 12.89 12.89 0 0 0 9.825 1.459 12.95 12.95 0 0 0 8.872-7.675h-6.756a.535.535 0 0 1-.535-.538V17.3c0-.297.238-.538.535-.538h15.953c.297 0 .538.241.538.538v16.887c0 .297-.241.538-.538.538h-4.478a.537.537 0 0 1-.538-.538V26.42a18.48 18.48 0 0 1-11.709 8.965 18.41 18.41 0 0 1-14.028-2.09 18.478 18.478 0 0 1-3.819-3.038A18.278 18.278 0 0 1 0 27.328C1.175 40.044 11.869 50 24.89 50c13.81 0 25-11.194 25-25 0-10.912-6.99-20.194-16.737-23.603Z"/></g><defs><clipPath id="a"><path fill="#fff" d="M0 0h50v50H0z"/></clipPath></defs></svg>
